packages/ui-icons/src/Basic/32/Cards_32.svg

<svg xmlns="http://www.w3.org/2000/svg" viewBox="0 0 40 40"><path d="M6 24h2v8a4 4 0 0 0 4 4h22a4 4 0 0 0 4-4V20a4 4 0 0 0-4-4h-2V8a4 4 0 0 0-4-4H6a4 4 0 0 0-4 4v12a4 4 0 0 0 4 4Zm-2-4v-8h26v8a2 2 0 0 1-2 2H6a2 2 0 0 1-2-2Zm30-2a2 2 0 0 1 2 2v12a2 2 0 0 1-2 2H12a2 2 0 0 1-2-2v-8h18a4 4 0 0 0 4-4v-2ZM6 6h22a2 2 0 0 1 2 2v2H4V8a2 2 0 0 1 2-2Zm6 24h4v2h-4Zm18 0h4v2h-4Zm-6 0h4v2h-4Zm-6 0h4v2h-4Z"/></svg>

<svg id="Ready" xmlns="http://www.w3.org/2000/svg" viewBox="0 0 40 40"><title>Megaicons_work_32_1.8_cp</title><path d="M6,24H8v8a4,4,0,0,0,4,4H34a4,4,0,0,0,4-4V20a4,4,0,0,0-4-4H32V8a4,4,0,0,0-4-4H6A4,4,0,0,0,2,8V20A4,4,0,0,0,6,24ZM4,20V12H30v8a2,2,0,0,1-2,2H6A2,2,0,0,1,4,20Zm30-2a2,2,0,0,1,2,2V32a2,2,0,0,1-2,2H12a2,2,0,0,1-2-2V24H28a4,4,0,0,0,4-4V18ZM6,6H28a2,2,0,0,1,2,2v2H4V8A2,2,0,0,1,6,6Zm6,24h4v2H12Zm18,0h4v2H30Zm-6,0h4v2H24Zm-6,0h4v2H18Z"/></svg>
